X: 1
T: Youghal Harbour
T: Boolavogue, Boulavogue
C: trad. Ireland
%D:1806
R: song, air, waltz
Z: 2020 John Chambers <jc:trillian.mit.edu>
S: https://www.facebook.com/groups/Fiddletuneoftheday/ 2020-11-12
S: https://www.facebook.com/groups/Fiddletuneoftheday/photos/
S: Smollet Holden "Collection of Old Established Irish Slow and Quick Tunes" p.14, 1806
M: 3/4
L: 1/8
K: G
D2 | "G"G4 D2 | G4 Bd | "C"g4 f2 | e g3 e2 | "G"d4 e2 | "Em"B4 AG | "Am"A3 B AG | "C"E4 F2 |
y2 | "G"G4 D2 | G4 Bd | "C"g4 f2 | e g3 e2 | "G"d4 {f}ed | "Em"B4 AG | "Am"A3 B AG | "G"G4 |]
B2 | "G"d4 B2 | d4 ef | "C"g4 gf | e g3 e2 | "G"d4 e2 | "Em"B4 AG | "Am"A3 B AG | "C"E4 F2 |
y2 | "G"G4 D2 | G4 Bd | "C"g3a {ga}gf | e2 g2 {a}ge | "Bm"d4 e2 | "Em"B4 AG | "Am"A3 B AF | "G"G4 |]
